X:35
T:Long Acre, The
R:fling
C:Kevin Burke
Z:id:hn-hf-35
M:C|
L:1/8
K:D
D2dB AGFE | DFdF A2FE | D2dB AGFD | GABG E2FE |
D2dB AGFE | DFdF A2Bc | dBcA (3Bcd AF |1 GABG E2FE :|2 GABG E3e ||
|: fgaf d2de | fgaf dcAe | fgaf dcdA | (3Bcd ef g2ag |
fgaf d2de | fgaf g2fg |1 afge fdAF | GABG E3e :|2 afge faec | dBAF G2FE ||

